X:1
T:Riding on a Load of Hay
L:1/8
M:2/4
I:linebreak $
K:G
V:1 treble
V:1
"Em" E>F GA | Be ef/e/"D" | dB A/B/A/G/ | FD D/E/F/D/ |"Em`" E>F GA | Be ee/f/ |$
 "Em"ge "D(Bm)"af |1 "Em"e2 eB :|2  "Em"e2 ef |: "Em"g2 "D"f>f | "Em"ed BB/^c/ | "D"d2 A2 A/B/A/G/ | FD D2 |$ 
|1"Em" ge/g/ "D"fg/f/ |"Em" ed B> ^c| "D"dA B/A/G/F/ | "Em" E2 E2 :|2"Em" EG "Bm"FA |"Em" GB "(C)"e>f | "Am"ge "B(m)"a2 f2 | "Em"e2 e2 |]
